Numix-GalliumOS/48/mimetypes/audio-x-smart-playlist.svg

<svg width="48" xmlns="http://www.w3.org/2000/svg" viewBox="0 0 48 48" height="48">
<path style="fill:#9b4a85" d="M 8,1 C 6.9714285,1 6,1.9714285 6,3 l 0,42 c 0,0.971429 1.0285714,2 2,2 l 32,0 c 0.971429,0 2,-1.028571 2,-2 L 42,14 29,1 z"/>
<path style="fill-opacity:.196" d="M 29,12 29.0625,12.0625 29.21875,12 29,12 z m 2,2 11,11 0,-11 -11,0 z"/>
<path style="fill:#fff;fill-opacity:.392" d="m 29,1 13,13 -11,0 c -0.971429,0 -2,-1.028571 -2,-2 L 29,1 z"/>
<g style="fill:#fff">
<g transform="translate(11 -1016.3622)">
<path d="m 9.2022843,1036.5424 c -1.1648291,0.2929 -2.1430427,1.3626 -2.1430427,1.3626 l 0.029831,0.034 1.8658283,6.9321 c -1.3341199,-0.7236 -3.2394269,-0.5419 -4.8167636,0.5981 -2.0377369,1.473 -2.7469842,3.9837 -1.566995,5.6008 1.1800836,1.6174 3.7833323,1.7312 5.8210647,0.2582 1.6063259,-1.161 2.500751,-2.991 2.177773,-4.4941 -0.01001,-0.047 -0.02452,-0.091 -0.03688,-0.137 l -1.7905338,-6.9305 c 0.041606,-0.061 0.5641537,-0.3008 2.2556898,-0.4161 1.790111,-0.1206 3.001746,-2.9883 3.001746,-2.9883 0,0 -2.012721,0.7708 -3.597226,0.2122 -0.396122,-0.1396 -0.8132901,-0.1327 -1.2011851,-0.034 z"/>
</g>
<path d="m 23,29 0,1 12,0 0,-1 z"/>
<path d="m 23,32 0,1 12,0 0,-1 z"/>
<path d="m 23,35 0,1 12,0 0,-1 z"/>
<path d="m 30.666667,20 c -0.184667,0 -0.333334,0.148667 -0.333334,0.333333 l 0,0.75 c -0.335135,0.07631 -0.644957,0.207207 -0.927083,0.385417 L 28.875,20.9375 c -0.130579,-0.130579 -0.338171,-0.130579 -0.46875,0 l -0.46875,0.46875 c -0.130579,0.130579 -0.130579,0.338171 0,0.46875 l 0.53125,0.53125 c -0.17821,0.282126 -0.309104,0.591948 -0.385417,0.927083 l -0.75,0 C 27.148667,23.333333 27,23.482 27,23.666667 l 0,0.666666 c 0,0.184667 0.148667,0.333334 0.333333,0.333334 l 0.75,0 c 0.07631,0.335135 0.207207,0.644957 0.385417,0.927083 L 27.9375,26.125 c -0.130579,0.130579 -0.130579,0.338171 0,0.46875 l 0.46875,0.46875 c 0.130579,0.130579 0.338171,0.13058 0.46875,0 l 0.53125,-0.53125 c 0.282126,0.17821 0.591948,0.309104 0.927083,0.385417 l 0,0.75 C 30.333333,27.851333 30.482,28 30.666667,28 l 0.666666,0 c 0.184667,0 0.333334,-0.148667 0.333334,-0.333333 l 0,-0.75 c 0.335135,-0.07631 0.644957,-0.207207 0.927083,-0.385417 L 33.125,27.0625 c 0.130579,0.130579 0.338171,0.130578 0.46875,0 l 0.46875,-0.46875 c 0.130579,-0.130579 0.13058,-0.338171 0,-0.46875 l -0.53125,-0.53125 c 0.17821,-0.282126 0.309104,-0.591948 0.385417,-0.927083 l 0.75,0 C 34.851333,24.666667 35,24.518 35,24.333333 l 0,-0.666666 C 35,23.482 34.851333,23.333333 34.666667,23.333333 l -0.75,0 C 33.840357,22.998198 33.70946,22.688376 33.53125,22.40625 L 34.0625,21.875 c 0.130579,-0.130579 0.130578,-0.338171 0,-0.46875 L 33.59375,20.9375 c -0.130579,-0.130579 -0.338171,-0.130579 -0.46875,0 l -0.53125,0.53125 c -0.282126,-0.17821 -0.591948,-0.309104 -0.927083,-0.385417 l 0,-0.75 C 31.666667,20.148667 31.518,20 31.333333,20 l -0.666666,0 z M 31,22.666667 C 31.736,22.666666 32.333333,23.264 32.333333,24 32.333333,24.736 31.736,25.333333 31,25.333333 30.264,25.333334 29.666667,24.736 29.666667,24 29.666667,23.264 30.264,22.666667 31,22.666667 z"/>
</g>
</svg>

<svg xmlns="http://www.w3.org/2000/svg" viewBox="0 0 48 48">
 <path d="m 8 1 c -1.029 0 -2 0.971 -2 2 l 0 42 c 0 0.971 1.029 2 2 2 l 32 0 c 0.971 0 2 -1.029 2 -2 l 0 -31 -13 -13 z" style="fill:#9b4a85"/>
 <path d="m 29 12 0.063 0.063 0.156 -0.063 -0.219 0 z m 2 2 11 11 0 -11 -11 0 z" style="fill-opacity:0.196"/>
 <path d="m 29 1 13 13 -11 0 c -0.971 0 -2 -1.029 -2 -2 l 0 -11 z" style="fill:#fff;fill-opacity:0.392"/>
 <g transform="translate(11,-1016.3622)" style="fill:#fff">
  <path d="m 9.202 1036.54 c -1.165 0.293 -2.143 1.363 -2.143 1.363 l 0.03 0.034 1.866 6.932 c -1.334 -0.724 -3.239 -0.542 -4.817 0.598 -2.038 1.473 -2.747 3.984 -1.567 5.601 1.18 1.617 3.783 1.731 5.821 0.258 1.606 -1.161 2.501 -2.991 2.178 -4.494 -0.01 -0.047 -0.025 -0.091 -0.037 -0.137 l -1.791 -6.93 c 0.042 -0.061 0.564 -0.301 2.256 -0.416 1.79 -0.121 3 -2.988 3 -2.988 0 0 -2.01 0.771 -3.597 0.212 -0.396 -0.14 -0.813 -0.133 -1.201 -0.034 z"/>
 </g>
 <path d="m 23 29 0 1 12 0 0 -1 z" style="fill:#fff"/>
 <path d="m 23 32 0 1 12 0 0 -1 z" style="fill:#fff"/>
 <path d="m 23 35 0 1 12 0 0 -1 z" style="fill:#fff"/>
 <path d="m 30.667 20 c -0.185 0 -0.333 0.149 -0.333 0.333 l 0 0.75 c -0.335 0.076 -0.645 0.207 -0.927 0.385 l -0.531 -0.531 c -0.131 -0.131 -0.338 -0.131 -0.469 0 l -0.469 0.469 c -0.131 0.131 -0.131 0.338 0 0.469 l 0.531 0.531 c -0.178 0.282 -0.309 0.592 -0.385 0.927 l -0.75 0 c -0.185 0 -0.333 0.149 -0.333 0.333 l 0 0.667 c 0 0.185 0.149 0.333 0.333 0.333 l 0.75 0 c 0.076 0.335 0.207 0.645 0.385 0.927 l -0.531 0.531 c -0.131 0.131 -0.131 0.338 0 0.469 l 0.469 0.469 c 0.131 0.131 0.338 0.131 0.469 0 l 0.531 -0.531 c 0.282 0.178 0.592 0.309 0.927 0.385 l 0 0.75 c 0 0.185 0.149 0.333 0.333 0.333 l 0.667 0 c 0.185 0 0.333 -0.149 0.333 -0.333 l 0 -0.75 c 0.335 -0.076 0.645 -0.207 0.927 -0.385 l 0.531 0.531 c 0.131 0.131 0.338 0.131 0.469 0 l 0.469 -0.469 c 0.131 -0.131 0.131 -0.338 0 -0.469 l -0.531 -0.531 c 0.178 -0.282 0.309 -0.592 0.385 -0.927 l 0.75 0 c 0.185 0 0.333 -0.149 0.333 -0.333 l 0 -0.667 c 0 -0.185 -0.149 -0.333 -0.333 -0.333 l -0.75 0 c -0.076 -0.335 -0.207 -0.645 -0.385 -0.927 l 0.531 -0.531 c 0.131 -0.131 0.131 -0.338 0 -0.469 l -0.469 -0.469 c -0.131 -0.131 -0.338 -0.131 -0.469 0 l -0.531 0.531 c -0.282 -0.178 -0.592 -0.309 -0.927 -0.385 l 0 -0.75 c 0 -0.185 -0.149 -0.333 -0.333 -0.333 l -0.667 0 z m 0.333 2.667 c 0.736 0 1.333 0.597 1.333 1.333 0 0.736 -0.597 1.333 -1.333 1.333 -0.736 0 -1.333 -0.597 -1.333 -1.333 0 -0.736 0.597 -1.333 1.333 -1.333" style="fill:#fff"/>
</svg>
